svgs/sharp-regular/mercury.svg

<svg xmlns="http://www.w3.org/2000/svg" viewBox="0 0 384 512"><!--! Font Awesome Pro 6.6.0 by @fontawesome - https://fontawesome.com License - https://fontawesome.com/license (Commercial License) Copyright 2024 Fonticons, Inc. --><path d="M50.6 0C62 28.6 81.7 52.9 106.9 69.9C52.7 99.9 16 157.7 16 224c0 89.1 66.2 162.7 152 174.4l0 25.6-32 0-24 0 0 48 24 0 32 0 0 16 0 24 48 0 0-24 0-16 32 0 24 0 0-48-24 0-32 0 0-25.6c85.8-11.7 152-85.3 152-174.4c0-66.3-36.7-124.1-90.9-154.1C302.3 52.9 322 28.6 333.4 0L279.7 0C261.2 28.9 228.8 48 192 48s-69.2-19.1-87.7-48L50.6 0zM192 96a128 128 0 1 1 0 256 128 128 0 1 1 0-256z"/></svg>

<svg xmlns="http://www.w3.org/2000/svg" viewBox="0 0 384 512"><!--! Font Awesome Pro 6.4.0 by @fontawesome - https://fontawesome.com License - https://fontawesome.com/license (Commercial License) Copyright 2023 Fonticons, Inc. --><path d="M50.6 0C62 28.6 81.7 52.9 106.9 69.9C52.7 99.9 16 157.7 16 224c0 89.1 66.2 162.7 152 174.4V424H136 112v48h24 32v16 24h48V488 472h32 24V424H248 216V398.4c85.8-11.7 152-85.3 152-174.4c0-66.3-36.7-124.1-90.9-154.1C302.3 52.9 322 28.6 333.4 0H279.7C261.2 28.9 228.8 48 192 48s-69.2-19.1-87.7-48H50.6zM192 96a128 128 0 1 1 0 256 128 128 0 1 1 0-256z"/></svg>
